!!!OTL: De Kirmesjang (273), S. 583
!!!id: T0463
**kern
*clefG2
*k[f#c#g#]
*A:
{8e
=1
8a
8e
8c#
16e
16e
=2
4a}
=3
{4cc#
=4
8b
8a
8g#
16f#
16f#
=5
4e}
=6
{4f#
=7
8e
8d
8c#
16d
16d
=8
8e
8e
8e}
=9
{8e
=10
8f#
8e
8e
8e
=11
8f#
8e
8e}
=12
{8e
=13
8a
8a
8b
16b
16b
=14
4cc#}
=15
{4ee
=16
8cc#
8a
8b
16e
16e
=17
4a}
8r
==
*-
!!!minrhy: 16
!!!meters: 2/4 ]  ZZ[6
!!!cut: De Kirmesjang (273), S. 583
!!!reg: Luxemburg
!!!trd: Singendes Volk, Esch-Alzette, 1937 posth.
!!!rhy1: X_  X_X_X_XX  X__
!!!rhy2: X__  X_X_X_XX  X__
!!!key: T0463  16  A 2/4 ]  ZZ[6
!!!mod: HEPTATONIK IONISCH]  AMBITUS[10b
!!!kad: 1-5-5-531
!!!akz: 11_2-5_-5-5_-6-6_13_31_
!!!fot: 'a__b__bs"c__d__e__
!!!for: 'a__av_aw_b__a__av_
!!!fok: '~a_\__Vd_-__/__Vd_
!! PHRAS[AUFTAKTIG]
!!!fkt: ???
!!!bem: Luxemburg, hhh Johann Weimerskirch, 1900
!! THILL; Mathias
!! PR[56] 2K[3] 2G[11] 3K[3] 3G[0] 4A[6] 4Ü[0] 5A[0] 6K[0] 6G[0]
!! 7K[0] 7G[0] 8A[0] MEHR[0] SI[22] ABS[36] SR[14] SP[8]
!! ST[8] 2k[3] 2g[8] 3k[0] 3g[3] 4d[6] 4ü[0] 5d[0] 6k[3] 6g[0]
!! 7k[0] 7g[0] 8d[0] mehr[0] si[22] dm[0] sr[11] sp[11]
!! 1F[10] 2F[67] 3F[18] 4F[0] LF[0] 2P[0] 3P[5] 4P[0] TRI[0] DF[4] AB[39]
!! TF[0] U3K[0] U3[0] U4[0] U4Ü[0] U5[0] U6K[0] U6[0] U7K[0] U7[3]
!! N1[3] N2K[0] N2[0] N3K[0] N3[5] N4[14] N4Ü[0] N5[51] N6K[0] N6[16]
!!!n7k: 0] N7[3] O1[5] O2K[0] O2[0] O3K[0] O3[0] HÖ[0
